icons/flutterpackage.svg

<svg width="16" height="16" viewBox="0 0 16 16" fill="none" xmlns="http://www.w3.org/2000/svg">
<path d="M8.79407 2.76081L3.6134 7.94148L5.21636 9.54444L12 2.76081H8.79407Z" fill="#2CB7F6"/>
<path d="M8.7575 7.53719L5.98432 10.3104L7.59338 11.9438L9.1943 10.3449L12 7.53719H8.7575Z" fill="#2CB7F6"/>
<path d="M7.59338 11.9438L8.81236 13.1628H12L9.19431 10.3449L7.59338 11.9438Z" fill="#086EC5"/>
<path d="M5.96604 10.3287L7.569 8.72569L9.19431 10.3449L7.59338 11.9438L5.96604 10.3287Z" fill="#00B5F8"/>
<path fill-rule="evenodd" clip-rule="evenodd" d="M13 3.2H3L3 12.8H13V3.2ZM3 2C2.44772 2 2 2.53726 2 3.2V12.8C2 13.4627 2.44772 14 3 14H13C13.5523 14 14 13.4627 14 12.8V3.2C14 2.53726 13.5523 2 13 2H3Z" fill="#2CB7F6"/>
</svg>

<svg xmlns="http://www.w3.org/2000/svg" width="16" height="16" fill="none"><path fill="#2CB7F6" d="m8.794 2.76-5.18 5.181 1.602 1.603L12 2.761H8.794ZM8.758 7.537 5.984 10.31l1.61 1.634 1.6-1.6L12 7.538H8.758Z"/><path fill="#086EC5" d="m7.593 11.944 1.22 1.219H12l-2.806-2.818-1.6 1.599Z"/><path fill="#00B5F8" d="m5.966 10.329 1.603-1.603 1.625 1.619-1.6 1.599-1.628-1.615Z"/><path fill="#2CB7F6" fill-rule="evenodd" d="M13 3.2H3v9.6h10V3.2ZM3 2c-.552 0-1 .537-1 1.2v9.6c0 .663.448 1.2 1 1.2h10c.552 0 1-.537 1-1.2V3.2c0-.663-.448-1.2-1-1.2H3Z" clip-rule="evenodd"/></svg>
